src/lib/packages/icons/src/assets/filled/arrow-left-circle.svg

<svg width="24" height="24" viewBox="0 0 24 24" fill="none" xmlns="http://www.w3.org/2000/svg">
<path d="M12 2C6.477 2 2 6.477 2 12C2 17.523 6.477 22 12 22C17.523 22 22 17.523 22 12C22 6.477 17.523 2 12 2ZM16 12.75H9.81104L11.531 14.47C11.824 14.763 11.824 15.238 11.531 15.531C11.385 15.677 11.193 15.751 11.001 15.751C10.809 15.751 10.6169 15.678 10.4709 15.531L7.47095 12.531C7.40195 12.462 7.34708 12.3791 7.30908 12.2871C7.23308 12.1041 7.23308 11.8971 7.30908 11.7141C7.34708 11.6221 7.40195 11.539 7.47095 11.47L10.4709 8.46997C10.7639 8.17697 11.239 8.17697 11.532 8.46997C11.825 8.76297 11.825 9.23801 11.532 9.53101L9.81201 11.251H16C16.414 11.251 16.75 11.587 16.75 12.001C16.75 12.415 16.414 12.75 16 12.75Z" fill="currentColor"/>
</svg>

<svg xmlns="http://www.w3.org/2000/svg" width="24" height="24" fill="none"><path fill="currentColor" d="M12 2C6.477 2 2 6.477 2 12s4.477 10 10 10 10-4.477 10-10S17.523 2 12 2Zm4 10.75H9.811l1.72 1.72a.75.75 0 0 1-1.06 1.061l-3-3a.748.748 0 0 1-.162-.817.749.749 0 0 1 .162-.244l3-3a.75.75 0 0 1 1.061 1.061l-1.72 1.72H16a.75.75 0 0 1 0 1.499Z"/></svg>
